frontend/public/svg/files/file-svg.svg

<svg width="142" height="175" viewBox="0 0 142 175" fill="none" xmlns="http://www.w3.org/2000/svg">
<g clip-path="url(#clip0)">
<path d="M141.02 93.0761C141.2 109.353 141.445 125.636 141.528 141.916C141.559 147.861 141.102 153.808 141.057 159.755C140.995 168.12 134.466 173.177 126.874 173.334C111.609 173.649 96.3382 174.018 81.0725 173.935C62.5447 173.835 44.0176 173.357 25.4945 172.885C21.3465 172.675 17.214 172.227 13.1178 171.541C7.98585 170.81 2.93286 164.92 2.74778 159.328C2.28046 145.194 1.74544 131.056 1.58989 116.917C1.24728 85.8065 1.18042 54.6961 0.848309 23.5856C0.797771 18.8068 0.913967 14.1772 2.89152 9.75607C4.36893 6.44876 6.48497 3.76678 10.1519 2.77637C11.4512 2.43963 12.7838 2.24844 14.1254 2.20656C19.846 1.97947 25.5779 1.96199 31.2906 1.62201C51.053 0.445851 70.8113 0.879736 90.573 1.53804C93.3775 1.63124 96.1853 1.7625 98.9872 1.70277C100.916 1.67233 102.778 2.40762 104.164 3.74773C113.401 11.9471 122.634 20.1514 131.862 28.3604C133.204 29.5543 134.47 30.8434 135.885 31.9427C138.83 34.232 139.66 37.3445 139.716 40.8651C139.921 54.0017 140.182 67.137 140.384 80.2729C140.449 84.5391 140.394 88.8053 140.394 93.0715L141.02 93.0761ZM93.7129 9.8708C91.7747 9.71197 90.1188 9.48271 88.4622 9.45449C74.3181 9.21427 60.1735 8.99702 46.0286 8.80228C39.6345 8.71368 33.2392 8.67824 26.8445 8.63886C23.5956 8.61917 20.3396 8.51612 17.098 8.68086C12.4629 8.91649 11.1002 10.2599 10.2719 14.9494C9.4804 19.1462 9.31769 23.4378 9.78901 27.6826C10.0089 29.4652 10.1241 31.2589 10.1341 33.0551C10.2089 73.1353 10.2713 113.215 10.3212 153.292C10.2807 154.301 10.3179 155.312 10.4322 156.316C11.2375 161.436 13.9363 164.546 19.5211 164.771C41.1855 165.645 62.8499 165.641 84.5209 165.276C95.5224 165.09 106.525 165 117.527 164.875C120.218 164.845 122.917 164.951 125.6 164.806C130.02 164.568 132.356 162.145 132.307 157.704C132.252 152.772 131.887 147.843 131.805 142.911C131.709 137.187 131.904 131.456 131.739 125.735C131.335 111.486 130.64 97.2452 130.368 82.9948C130.146 71.3238 130.368 59.6441 130.379 47.9679C130.379 47.026 130.265 46.084 130.231 45.5655C122.735 45.5655 115.665 45.6188 108.597 45.5329C106.467 45.5299 104.344 45.2876 102.268 44.8108C98.0198 43.7784 96.7143 42.1496 96.2201 37.8433C96.0797 36.6186 96.0724 35.3779 95.9576 34.1492C95.233 26.2213 94.4966 18.2949 93.7129 9.8708ZM105.811 37.387C111.269 37.0772 116.413 36.7912 121.557 36.4887C122.768 36.4178 123.976 36.2915 125.916 36.1275L103.053 15.3782L102.534 15.7589C103.605 22.827 104.676 29.8955 105.811 37.387Z" fill="black"/>
<path d="M111.037 128.213C110.829 125.397 109.133 124.645 107.517 123.874C106.715 123.491 105.787 123.372 104.978 122.999C104.239 122.715 103.613 122.197 103.195 121.525C102.777 120.853 102.588 120.063 102.66 119.275C102.777 118.491 103.15 117.768 103.721 117.219C104.292 116.67 105.029 116.325 105.817 116.239C108.024 115.842 110.247 115.535 112.467 115.213C114.244 114.955 115.925 115.287 116.981 116.806C118.088 118.398 117.637 119.997 116.41 121.411C116.284 121.612 116.187 121.83 116.121 122.058C116.217 122.365 116.331 122.667 116.461 122.961C119.221 128.45 116.901 133.825 110.524 135.898C100.618 139.118 88.4417 133.372 89.0855 120.08C89.4905 111.728 93.4049 105.095 100.768 100.784C102.039 100.074 103.395 99.5268 104.803 99.1567C105.233 98.9827 105.695 98.9027 106.159 98.9217C106.623 98.9401 107.077 99.0582 107.492 99.2663C107.906 99.475 108.272 99.7697 108.563 100.131C108.855 100.492 109.066 100.911 109.183 101.36C109.455 102.377 108.694 103.07 107.624 103.586C105.687 104.451 103.862 105.547 102.189 106.851C100.272 108.425 98.7042 110.383 97.5864 112.598C96.4693 114.814 95.8261 117.237 95.6988 119.715C95.1823 127.02 101.458 131.993 108.224 129.741C109.206 129.319 110.148 128.808 111.037 128.213Z" fill="black"/>
<path d="M73.1272 125.606C74.5462 120.167 75.7526 115.529 76.9675 110.895C77.5089 108.834 78.0242 106.765 78.651 104.73C79.0087 103.551 79.4812 102.411 80.0608 101.324C80.8149 99.925 82.0252 99.1328 83.6838 99.5122C85.4034 99.906 85.9409 101.247 85.9547 102.818C86.0098 103.941 85.9193 105.066 85.6863 106.165C83.4731 114.742 81.2173 123.308 78.9188 131.866C78.6241 132.949 78.2079 133.996 77.6776 134.986C76.0368 138.067 72.7341 138.449 70.5734 135.72C69.3165 134.136 68.2342 132.421 67.3456 130.604C63.8697 123.443 60.4667 116.245 57.1369 109.011C56.5204 107.567 56.089 106.052 55.8531 104.5C55.6043 103.106 55.9719 101.792 57.4244 101.112C58.6833 100.521 60.1627 100.993 61.2469 102.421C61.832 103.244 62.3398 104.119 62.7637 105.035C65.8183 111.158 68.8624 117.286 71.8966 123.419C72.1394 123.906 72.4302 124.37 73.1272 125.606Z" fill="black"/>
<path d="M44.9895 103.998C39.4106 104.433 36.9737 106.509 36.2911 111.579C37.2533 112.043 38.3164 112.58 39.3994 113.074C41.438 114.004 43.5344 114.821 45.5218 115.849C47.9507 117.061 49.9767 118.95 51.3553 121.289C55.2054 127.898 51.27 135.764 43.6571 136.62C39.2597 137.115 35.5113 135.505 32.1161 132.888C31.6418 132.586 31.2824 132.134 31.0949 131.603C30.9459 130.677 30.7371 129.462 31.1933 128.823C31.6494 128.184 32.8669 127.959 33.7857 127.849C34.3837 127.777 35.038 128.264 35.6799 128.456C37.1651 128.959 38.6747 129.387 40.2028 129.738C43.1347 130.301 45.5192 129.393 46.4052 127.544C47.2453 125.788 46.1696 123.343 43.6414 121.647C42.413 120.868 41.1247 120.188 39.7886 119.613C38.0598 118.815 36.2346 118.215 34.5432 117.35C30.4903 115.276 29.183 111.604 31.0115 107.445C32.4555 104.164 34.6272 101.396 38.0303 100.089C39.793 99.4328 41.6879 99.2123 43.5541 99.4453C46.0121 99.7728 46.4242 101.387 44.9895 103.998Z" fill="black"/>
</g>
<defs>
<clipPath id="clip0">
<rect width="141.113" height="173.93" fill="white" transform="translate(0.706299 0.574219)"/>
</clipPath>
</defs>
</svg>

<svg xmlns="http://www.w3.org/2000/svg" width="142" height="175" fill="none" viewBox="0 0 142 175"><g fill="#000" clip-path="url(#a)"><path d="M141.02 93.076c.18 16.277.425 32.56.508 48.84.031 5.945-.426 11.892-.471 17.839-.062 8.365-6.591 13.422-14.183 13.579-15.265.315-30.536.684-45.801.601-18.528-.1-37.055-.578-55.578-1.05-4.149-.21-8.281-.658-12.377-1.344-5.132-.731-10.185-6.621-10.37-12.213-.468-14.134-1.003-28.272-1.158-42.411-.343-31.11-.41-62.22-.742-93.331-.05-4.78.066-9.409 2.044-13.83 1.477-3.307 3.593-5.99 7.26-6.98 1.3-.336 2.632-.528 3.973-.57 5.721-.227 11.453-.244 17.166-.584C51.053.446 70.81.88 90.573 1.538c2.805.093 5.612.224 8.414.165a7.28 7.28 0 0 1 5.177 2.045q13.856 12.3 27.698 24.612c1.342 1.194 2.608 2.483 4.023 3.583 2.945 2.289 3.775 5.401 3.831 8.922.205 13.137.466 26.272.668 39.408.065 4.266.01 8.532.01 12.799zM93.713 9.871c-1.938-.159-3.594-.388-5.25-.417q-21.218-.36-42.434-.652c-6.395-.088-12.79-.124-19.185-.163-3.248-.02-6.504-.123-9.746.042-4.635.235-5.998 1.579-6.826 6.268a43 43 0 0 0-.483 12.734c.22 1.782.335 3.576.345 5.372q.112 60.12.187 120.237c-.04 1.009-.003 2.02.111 3.024.806 5.12 3.504 8.23 9.09 8.455 21.664.874 43.328.87 64.999.505 11.001-.186 22.004-.276 33.006-.401 2.691-.03 5.39.076 8.073-.069 4.42-.238 6.756-2.661 6.707-7.102-.055-4.932-.42-9.861-.502-14.793-.096-5.724.099-11.455-.066-17.176-.404-14.249-1.099-28.49-1.371-42.74-.222-11.671 0-23.35.011-35.027 0-.942-.114-1.884-.148-2.403-7.496 0-14.566.054-21.634-.032a28.5 28.5 0 0 1-6.329-.722c-4.248-1.033-5.554-2.661-6.048-6.968-.14-1.224-.148-2.465-.262-3.694-.725-7.928-1.461-15.854-2.245-24.278m12.098 27.516c5.458-.31 10.602-.596 15.746-.898 1.211-.071 2.419-.197 4.359-.361l-22.863-20.75-.519.38z"/><path d="M111.037 128.213c-.208-2.816-1.904-3.568-3.52-4.339-.802-.383-1.73-.502-2.539-.875a3.64 3.64 0 0 1-2.318-3.724 3.586 3.586 0 0 1 3.157-3.036c2.207-.397 4.43-.704 6.65-1.026 1.777-.258 3.458.074 4.514 1.593 1.107 1.592.656 3.191-.571 4.605a2.6 2.6 0 0 0-.289.647q.144.461.34.903c2.76 5.489.44 10.864-5.937 12.937-9.906 3.22-22.082-2.526-21.439-15.818.406-8.352 4.32-14.985 11.683-19.296a17.3 17.3 0 0 1 4.035-1.627 3.26 3.26 0 0 1 3.76.974c.292.361.503.78.62 1.229.272 1.017-.489 1.71-1.559 2.226a26.3 26.3 0 0 0-5.435 3.265 17.83 17.83 0 0 0-6.49 12.864c-.517 7.305 5.759 12.278 12.525 10.026a17.4 17.4 0 0 0 2.813-1.528m-37.91-2.607c1.42-5.439 2.626-10.077 3.84-14.711.542-2.061 1.057-4.13 1.684-6.165a19 19 0 0 1 1.41-3.406c.754-1.399 1.964-2.191 3.623-1.812 1.72.394 2.257 1.735 2.27 3.306a13 13 0 0 1-.268 3.347 2696 2696 0 0 1-6.767 25.701 15 15 0 0 1-1.241 3.12c-1.641 3.081-4.944 3.463-7.105.734a28 28 0 0 1-3.227-5.116 1165 1165 0 0 1-10.21-21.593 18.6 18.6 0 0 1-1.283-4.511c-.249-1.394.119-2.708 1.571-3.388 1.26-.591 2.739-.119 3.823 1.309a16.4 16.4 0 0 1 1.517 2.614 6183 6183 0 0 1 9.133 18.384c.242.487.533.951 1.23 2.187M44.99 103.998c-5.58.435-8.016 2.511-8.699 7.581.962.464 2.025 1.001 3.108 1.495 2.039.93 4.135 1.747 6.123 2.775a14.06 14.06 0 0 1 5.833 5.44c3.85 6.609-.085 14.475-7.698 15.331-4.397.495-8.146-1.115-11.54-3.732a2.5 2.5 0 0 1-1.022-1.285c-.15-.926-.358-2.141.098-2.78s1.674-.864 2.593-.974c.598-.072 1.252.415 1.894.607q2.23.755 4.523 1.282c2.932.563 5.316-.345 6.202-2.194.84-1.756-.235-4.201-2.764-5.897a27.5 27.5 0 0 0-3.852-2.034c-1.73-.798-3.554-1.398-5.246-2.263-4.053-2.074-5.36-5.746-3.531-9.905 1.444-3.281 3.615-6.049 7.018-7.356a11.7 11.7 0 0 1 5.524-.644c2.458.328 2.87 1.942 1.435 4.553"/></g><defs><clipPath id="a"><path fill="#fff" d="M.706.574H141.82v173.93H.706z"/></clipPath></defs></svg>
